X:366
T: ICH LEGTE MICH NIEDER INS GRUNIGE GRAS
N: E0205A
O: Europa, Mitteleuropa, Deutschland, Hessen; Ober - Lahnkreis
R: erzaehlendes Volks - Lied, Todes - Ahnung; betrogene Liebe
M: 3/4
L: 1/8
K: F
F2 | EGG2ED | CAA2
F2 | A3BcA | G4
GA | Bff2dB | Acc2
AF | E3GBG | F4

@@@ Tune index: 4016
